X: 187
T: Meilide gu niang
L: 1/8
M: 3/4
K: G
d d/ d/ g f [I:setbarnb 1]| 
e f g ed2 | 
d d g f e f/ a/ | 
[M:2/4]g4- | 
g4 | 
d d g3/ f/ | 
[M:3/4]e f/ f/ g e d B | 
[M:2/4]d d/ d< e d/ | 
B> G A/ B/ A/ F/ | 
G4- | 
G4 | 
d d/ d/ g f | 
[M:3/4]e f g ed2 | 
d d g f e f/ a/ | 
[M:2/4]G4- | 
G4 | 
d d g3/ f/ | 
[M:3/4]e f/ f/ g e d B | 
[M:2/4]d d/ d< e d/ | 
B> G A/ B/ A/ F/ | 
G4- | 
G4 | 
[M:3/4]G Ge2d2 | 
[M:2/4]e/ g/ e/ d/ B B/ B/ | 
A B c d/ c/ | 
[M:3/4]B> G A/ B/ A/ F/G2 | 
G Ge2d2 | 
[M:2/4]e/ g/ e/ d/ B B/ B/ | 
A B c d/ c/ | 
B> G A/ B/ A/ F/ | 
G4- | 
G4 |]

@@@ Tune index: 8855
